HelpDesk_TicketSystem/ClientApp/src/assets/images/vector-1.svg

<svg width="228" height="310" viewBox="0 0 228 310" fill="none" xmlns="http://www.w3.org/2000/svg">
<g clip-path="url(#clip0_28_588)">
<path opacity="0.2" d="M-8.73378 169.808C9.44959 106.961 -30.8676 90.2491 -13.811 59.1888C2.44586 29.7109 37.9995 32.9971 65.5267 44.7959C92.6112 56.4522 116.861 91.55 123.956 120.368C132.834 156.228 124.579 184.317 104.407 221.374C86.1698 255.032 2.2114 320.457 -31.0979 280.528C-60.1996 245.804 -19.256 205.93 -8.73378 169.808V169.808Z" fill="#03669A"/>
<path d="M148.1 63.451C145.1 64.4584 142.6 66.3891 141 68.7397C140.2 69.831 139.7 71.0062 139.1 72.1815C138.458 73.6362 138.087 75.1652 138 76.7146V77.5541L138.3 79.317C138.5 80.1565 138.9 80.996 139.4 81.7515C140.2 82.8428 141.1 83.7662 142.2 84.6057C144.42 86.2289 147.047 87.4114 149.887 88.0654C152.726 88.7194 155.704 88.8281 158.6 88.3833C160.77 88.0503 162.842 87.366 164.7 86.3686C166.1 85.5291 167.2 84.6896 168.1 83.4304C168.9 82.3391 169.4 80.912 169.7 79.7367C170.1 78.5615 170.2 77.3862 170.3 76.2949C170.4 75.3715 170.3 74.616 170.1 73.6086C169.895 72.2409 169.275 70.9402 168.3 69.831C166.978 68.4442 165.39 67.2526 163.6 66.3052C162.9 65.3818 161.9 64.962 160.7 64.6262L156.9 63.451C155.5 63.1152 153.9 62.8634 152.4 62.8634C150.9 62.8634 149.4 63.0313 148.1 63.451V63.451ZM152.7 71.0062L155.1 71.5099L155.7 71.9297C156.6 72.3494 157.6 72.7691 158.5 73.3568L159.8 74.4481V74.532L160 75.2036V77.0504L159.3 79.2331L159 79.5688L158.8 79.7367L157.6 80.2404L156.1 80.5762H153.7L151 79.9886L149.3 79.1491L148.1 78.1417C148.1 78.1417 148.1 77.9738 147.9 77.8899L147.8 77.6381V76.4628C148 75.6233 148.3 74.8678 148.7 74.1123L150.1 72.0136L150.9 71.342L151.4 71.0902H151.6L152.6 71.0062H152.7ZM151.2 71.1741L150.7 71.342L151.2 71.1741ZM148.2 78.1417L148.5 78.6454L148.2 78.1417ZM148.6 78.3936C148.6 78.5615 148.9 78.6454 149 78.8133L148.6 78.3936ZM44 136.065C44 136.485 44.4 136.905 45 136.905C45.5 136.905 46 136.569 46 136.065C46 135.646 45.6 135.226 45 135.226C44.7348 135.226 44.4804 135.314 44.2929 135.472C44.1054 135.629 44 135.843 44 136.065ZM60 121.291C60 121.542 60.2 121.794 60.6 121.794C60.9 121.794 61.2 121.626 61.2 121.291C61.2 121.039 61 120.787 60.6 120.787C60.3 120.787 60 121.039 60 121.291ZM74 113.903C74 114.155 74.2 114.407 74.6 114.407C74.9 114.407 75.2 114.239 75.2 113.903C75.2 113.651 75 113.4 74.6 113.4C74.3 113.4 74 113.651 74 113.903ZM62 139.927C62 140.179 62.2 140.431 62.6 140.431C62.9 140.431 63.2 140.263 63.2 139.927C63.2 139.675 63 139.423 62.6 139.423C62.3 139.423 62 139.675 62 139.927ZM42 112.896C42 113.148 42.2 113.4 42.6 113.4C42.9 113.4 43.2 113.232 43.2 112.896C43.2 112.644 43 112.392 42.6 112.392C42.3 112.392 42 112.644 42 112.896ZM46 95.0151C45.9843 95.1396 46.0019 95.2655 46.0516 95.3836C46.1013 95.5016 46.1818 95.6088 46.2873 95.6974C46.3928 95.7859 46.5205 95.8535 46.6611 95.8952C46.8017 95.937 46.9517 95.9518 47.1 95.9385C47.2483 95.9518 47.3983 95.937 47.5389 95.8952C47.6795 95.8535 47.8072 95.7859 47.9127 95.6974C48.0182 95.6088 48.0987 95.5016 48.1484 95.3836C48.1981 95.2655 48.2157 95.1396 48.2 95.0151C48.2157 94.8906 48.1981 94.7647 48.1484 94.6467C48.0987 94.5286 48.0182 94.4214 47.9127 94.3329C47.8072 94.2444 47.6795 94.1768 47.5389 94.135C47.3983 94.0933 47.2483 94.0785 47.1 94.0917C46.5 94.0917 46 94.5115 46 95.0151ZM-11.5 120.367C-11.5 121.542 -10.5 122.55 -8.9 122.55C-7.5 122.55 -6.3 121.71 -6.3 120.367C-6.3 119.192 -7.3 118.185 -8.9 118.185C-9.58165 118.205 -10.2287 118.442 -10.711 118.847C-11.1933 119.252 -11.4752 119.795 -11.5 120.367V120.367ZM-80.9 158.563C-80.9 159.235 -80.3 159.822 -79.4 159.822C-78.6 159.822 -77.9 159.319 -77.9 158.563C-77.9 157.892 -78.5 157.304 -79.4 157.304C-80.2 157.304 -80.9 157.892 -80.9 158.563V158.563ZM-89 186.685C-89 187.861 -88 188.952 -86.3 188.952C-84.9 188.952 -83.7 188.113 -83.7 186.685C-83.7 185.51 -84.7 184.503 -86.3 184.503C-86.9991 184.502 -87.6711 184.73 -88.1747 185.137C-88.6783 185.544 -88.9741 186.099 -89 186.685ZM83.6 127.922C83.6 128.174 83.9 128.426 84.3 128.426C84.6 128.426 84.9 128.174 84.9 127.922C84.9 127.587 84.6 127.335 84.3 127.335C83.9 127.335 83.6 127.587 83.6 127.922ZM107 126.495C107 126.831 107.3 127.083 107.6 127.083C108 127.083 108.3 126.831 108.3 126.495C108.3 126.243 108 125.992 107.6 125.992C107.3 125.992 107 126.243 107 126.495ZM173.7 141.942C173.7 143.369 175 144.628 177 144.628C178.7 144.628 180.2 143.537 180.2 141.942C180.2 140.431 178.9 139.171 177 139.171C176.125 139.171 175.285 139.463 174.667 139.983C174.048 140.502 173.7 141.207 173.7 141.942ZM148 107.691C148 108.279 148.5 108.782 149.2 108.782C149.9 108.782 150.5 108.363 150.5 107.691C150.5 107.187 150 106.684 149.2 106.684C148.6 106.684 148 107.187 148 107.691ZM220 10.3124C220 11.7395 221.3 13.0827 223.3 13.0827C225.1 13.0827 226.6 11.9074 226.6 10.3124C226.6 8.80138 225.3 7.54217 223.3 7.54217C222.433 7.56329 221.608 7.86193 220.994 8.37695C220.381 8.89197 220.025 9.58439 220 10.3124ZM152 15.9369C152 16.6924 152.7 17.364 153.7 17.364C154.7 17.364 155.4 16.7764 155.4 15.9369C155.4 15.0974 154.7 14.5098 153.7 14.5098C152.7 14.5098 152 15.1814 152 15.9369ZM225.4 -76.9926C225.4 -76.489 225.9 -75.9853 226.6 -75.9853C227.2 -75.9853 227.8 -76.405 227.8 -76.9926C227.8 -77.4963 227.3 -78 226.6 -78C225.9 -78 225.4 -77.4963 225.4 -76.9926Z" fill="#03669A"/>
<path d="M60.1 203.451C57.1 204.458 54.6 206.389 53 208.74C52.2 209.831 51.7 211.006 51.1 212.181C50.4583 213.636 50.0873 215.165 50 216.715V217.554L50.3 219.317C50.5 220.156 50.9 220.996 51.4 221.751C52.2 222.843 53.1 223.766 54.2 224.606C56.4201 226.229 59.0473 227.411 61.8865 228.065C64.7257 228.719 67.7039 228.828 70.6 228.383C72.7698 228.05 74.8416 227.366 76.7 226.369C78.1 225.529 79.2 224.69 80.1 223.43C80.9 222.339 81.4 220.912 81.7 219.737C82.1 218.561 82.2 217.386 82.3 216.295C82.4 215.371 82.3 214.616 82.1 213.609C81.8948 212.241 81.275 210.94 80.3 209.831C78.9781 208.444 77.3896 207.253 75.6 206.305C74.9 205.382 73.9 204.962 72.7 204.626L68.9 203.451C67.5 203.115 65.9 202.863 64.4 202.863C62.9 202.863 61.4 203.031 60.1 203.451V203.451ZM64.7 211.006L67.1 211.51L67.7 211.93C68.6 212.349 69.6 212.769 70.5 213.357L71.8 214.448V214.532L72 215.204V217.05L71.3 219.233L71 219.569L70.8 219.737L69.6 220.24L68.1 220.576H65.7L63 219.989L61.3 219.149L60.1 218.142C60.1 218.142 60.1 217.974 59.9 217.89L59.8 217.638V216.463C60 215.623 60.3 214.868 60.7 214.112L62.1 212.014L62.9 211.342L63.4 211.09H63.6L64.6 211.006H64.7ZM63.2 211.174L62.7 211.342L63.2 211.174ZM60.2 218.142L60.5 218.645L60.2 218.142ZM60.6 218.394C60.6 218.561 60.9 218.645 61 218.813L60.6 218.394ZM-44 276.065C-44 276.485 -43.6 276.905 -43 276.905C-42.5 276.905 -42 276.569 -42 276.065C-42 275.646 -42.4 275.226 -43 275.226C-43.2652 275.226 -43.5196 275.314 -43.7071 275.472C-43.8946 275.629 -44 275.843 -44 276.065ZM-28 261.291C-28 261.542 -27.8 261.794 -27.4 261.794C-27.1 261.794 -26.8 261.626 -26.8 261.291C-26.8 261.039 -27 260.787 -27.4 260.787C-27.7 260.787 -28 261.039 -28 261.291ZM-14 253.903C-14 254.155 -13.8 254.407 -13.4 254.407C-13.1 254.407 -12.8 254.239 -12.8 253.903C-12.8 253.651 -13 253.4 -13.4 253.4C-13.7 253.4 -14 253.651 -14 253.903ZM-26 279.927C-26 280.179 -25.8 280.431 -25.4 280.431C-25.1 280.431 -24.8 280.263 -24.8 279.927C-24.8 279.675 -25 279.423 -25.4 279.423C-25.7 279.423 -26 279.675 -26 279.927ZM-46 252.896C-46 253.148 -45.8 253.4 -45.4 253.4C-45.1 253.4 -44.8 253.232 -44.8 252.896C-44.8 252.644 -45 252.392 -45.4 252.392C-45.7 252.392 -46 252.644 -46 252.896ZM-42 235.015C-42.0157 235.14 -41.9981 235.266 -41.9484 235.384C-41.8987 235.502 -41.8182 235.609 -41.7127 235.697C-41.6072 235.786 -41.4795 235.854 -41.3389 235.895C-41.1983 235.937 -41.0483 235.952 -40.9 235.939C-40.7517 235.952 -40.6017 235.937 -40.4611 235.895C-40.3205 235.854 -40.1928 235.786 -40.0873 235.697C-39.9818 235.609 -39.9013 235.502 -39.8516 235.384C-39.8019 235.266 -39.7843 235.14 -39.8 235.015C-39.7843 234.891 -39.8019 234.765 -39.8516 234.647C-39.9013 234.529 -39.9818 234.421 -40.0873 234.333C-40.1928 234.244 -40.3205 234.177 -40.4611 234.135C-40.6017 234.093 -40.7517 234.078 -40.9 234.092C-41.5 234.092 -42 234.511 -42 235.015ZM-99.5 260.367C-99.5 261.542 -98.5 262.55 -96.9 262.55C-95.5 262.55 -94.3 261.71 -94.3 260.367C-94.3 259.192 -95.3 258.185 -96.9 258.185C-97.5817 258.205 -98.2287 258.442 -98.711 258.847C-99.1933 259.252 -99.4752 259.795 -99.5 260.367V260.367ZM-168.9 298.563C-168.9 299.235 -168.3 299.822 -167.4 299.822C-166.6 299.822 -165.9 299.319 -165.9 298.563C-165.9 297.892 -166.5 297.304 -167.4 297.304C-168.2 297.304 -168.9 297.892 -168.9 298.563V298.563ZM-177 326.685C-177 327.861 -176 328.952 -174.3 328.952C-172.9 328.952 -171.7 328.113 -171.7 326.685C-171.7 325.51 -172.7 324.503 -174.3 324.503C-174.999 324.502 -175.671 324.73 -176.175 325.137C-176.678 325.544 -176.974 326.099 -177 326.685ZM-4.39999 267.922C-4.39999 268.174 -4.1 268.426 -3.7 268.426C-3.4 268.426 -3.10001 268.174 -3.10001 267.922C-3.10001 267.587 -3.4 267.335 -3.7 267.335C-4.1 267.335 -4.39999 267.587 -4.39999 267.922ZM19 266.495C19 266.831 19.3 267.083 19.6 267.083C20 267.083 20.3 266.831 20.3 266.495C20.3 266.243 20 265.992 19.6 265.992C19.3 265.992 19 266.243 19 266.495ZM85.7 281.942C85.7 283.369 87 284.628 89 284.628C90.7 284.628 92.2 283.537 92.2 281.942C92.2 280.431 90.9 279.171 89 279.171C88.1248 279.171 87.2854 279.463 86.6665 279.983C86.0477 280.502 85.7 281.207 85.7 281.942ZM60 247.691C60 248.279 60.5 248.782 61.2 248.782C61.9 248.782 62.5 248.363 62.5 247.691C62.5 247.187 62 246.684 61.2 246.684C60.6 246.684 60 247.187 60 247.691ZM132 150.312C132 151.74 133.3 153.083 135.3 153.083C137.1 153.083 138.6 151.907 138.6 150.312C138.6 148.801 137.3 147.542 135.3 147.542C134.433 147.563 133.608 147.862 132.994 148.377C132.381 148.892 132.025 149.584 132 150.312ZM64 155.937C64 156.692 64.7 157.364 65.7 157.364C66.7 157.364 67.4 156.776 67.4 155.937C67.4 155.097 66.7 154.51 65.7 154.51C64.7 154.51 64 155.181 64 155.937ZM137.4 63.0074C137.4 63.511 137.9 64.0147 138.6 64.0147C139.2 64.0147 139.8 63.595 139.8 63.0074C139.8 62.5037 139.3 62 138.6 62C137.9 62 137.4 62.5037 137.4 63.0074Z" fill="#03669A"/>
</g>
<defs>
<clipPath id="clip0_28_588">
<rect width="228" height="310" fill="white"/>
</clipPath>
</defs>
</svg>

<svg width="228" height="310" fill="none" xmlns="http://www.w3.org/2000/svg"><g clip-path="url(#a)" fill="#03669A"><path opacity=".2" d="M-8.734 169.808C9.45 106.961-30.868 90.249-13.81 59.188c16.257-29.477 51.81-26.19 79.338-14.392 27.084 11.656 51.334 46.754 58.429 75.572 8.878 35.86.623 63.949-19.549 101.006C86.17 255.032 2.211 320.457-31.098 280.528-60.2 245.804-19.256 205.93-8.734 169.808Z"/><path d="M148.1 63.451c-3 1.007-5.5 2.938-7.1 5.289-.8 1.091-1.3 2.266-1.9 3.442a13.018 13.018 0 0 0-1.1 4.533v.84l.3 1.762c.2.84.6 1.679 1.1 2.434a13.72 13.72 0 0 0 2.8 2.855c2.22 1.623 4.847 2.805 7.687 3.46 2.839.653 5.817.762 8.713.317a19.012 19.012 0 0 0 6.1-2.014c1.4-.84 2.5-1.68 3.4-2.939.8-1.09 1.3-2.518 1.6-3.693.4-1.175.5-2.35.6-3.442.1-.924 0-1.679-.2-2.686-.205-1.368-.825-2.669-1.8-3.778a18.313 18.313 0 0 0-4.7-3.526c-.7-.923-1.7-1.343-2.9-1.679l-3.8-1.175c-1.4-.336-3-.588-4.5-.588s-3 .168-4.3.588Zm4.6 7.555 2.4.504.6.42c.9.42 1.9.84 2.8 1.427l1.3 1.091v.084l.2.672v1.846l-.7 2.183-.3.336-.2.168-1.2.503-1.5.336h-2.4l-2.7-.587-1.7-.84-1.2-1.007s0-.168-.2-.252l-.1-.252v-1.175c.2-.84.5-1.595.9-2.35l1.4-2.1.8-.671.5-.252h.2l1-.084h.1Zm-1.5.168-.5.168.5-.168Zm-3 6.968.3.503-.3-.503Zm.4.252c0 .167.3.251.4.42l-.4-.42ZM44 136.065c0 .42.4.84 1 .84.5 0 1-.336 1-.84 0-.419-.4-.839-1-.839-.265 0-.52.088-.707.246a.777.777 0 0 0-.293.593Zm16-14.774c0 .251.2.503.6.503.3 0 .6-.168.6-.503 0-.252-.2-.504-.6-.504-.3 0-.6.252-.6.504Zm14-7.388c0 .252.2.504.6.504.3 0 .6-.168.6-.504 0-.252-.2-.503-.6-.503-.3 0-.6.251-.6.503Zm-12 26.024c0 .252.2.504.6.504.3 0 .6-.168.6-.504 0-.252-.2-.504-.6-.504-.3 0-.6.252-.6.504Zm-20-27.031c0 .252.2.504.6.504.3 0 .6-.168.6-.504 0-.252-.2-.504-.6-.504-.3 0-.6.252-.6.504Zm4-17.88a.715.715 0 0 0 .052.368c.05.118.13.225.235.313.106.089.233.156.374.198.14.042.29.057.439.044.148.013.298-.002.439-.044.14-.041.268-.11.374-.198a.836.836 0 0 0 .235-.313.715.715 0 0 0 .052-.369.715.715 0 0 0-.052-.368.834.834 0 0 0-.235-.314 1.044 1.044 0 0 0-.374-.198 1.18 1.18 0 0 0-.439-.043c-.6 0-1.1.42-1.1.923Zm-57.5 25.351c0 1.175 1 2.183 2.6 2.183 1.4 0 2.6-.84 2.6-2.183 0-1.175-1-2.182-2.6-2.182-.682.02-1.329.257-1.811.662s-.764.948-.789 1.52Zm-69.4 38.196c0 .672.6 1.259 1.5 1.259.8 0 1.5-.503 1.5-1.259 0-.671-.6-1.259-1.5-1.259-.8 0-1.5.588-1.5 1.259Zm-8.1 28.122c0 1.176 1 2.267 2.7 2.267 1.4 0 2.6-.839 2.6-2.267 0-1.175-1-2.182-2.6-2.182-.7-.001-1.371.227-1.875.634-.503.407-.8.962-.825 1.548Zm172.6-58.763c0 .252.3.504.7.504.3 0 .6-.252.6-.504 0-.335-.3-.587-.6-.587-.4 0-.7.252-.7.587Zm23.4-1.427c0 .336.3.588.6.588.4 0 .7-.252.7-.588 0-.252-.3-.503-.7-.503-.3 0-.6.251-.6.503Zm66.7 15.447c0 1.427 1.3 2.686 3.3 2.686 1.7 0 3.2-1.091 3.2-2.686 0-1.511-1.3-2.771-3.2-2.771-.875 0-1.715.292-2.333.812-.619.519-.967 1.224-.967 1.959ZM148 107.691c0 .588.5 1.091 1.2 1.091s1.3-.419 1.3-1.091c0-.504-.5-1.007-1.3-1.007-.6 0-1.2.503-1.2 1.007Zm72-97.379c0 1.428 1.3 2.77 3.3 2.77 1.8 0 3.3-1.175 3.3-2.77 0-1.51-1.3-2.77-3.3-2.77-.867.021-1.692.32-2.306.835-.613.515-.969 1.207-.994 1.935Zm-68 5.625c0 .755.7 1.427 1.7 1.427s1.7-.588 1.7-1.427c0-.84-.7-1.427-1.7-1.427s-1.7.671-1.7 1.427Zm73.4-92.93c0 .504.5 1.008 1.2 1.008.6 0 1.2-.42 1.2-1.008 0-.503-.5-1.007-1.2-1.007s-1.2.504-1.2 1.007ZM60.1 203.451c-3 1.007-5.5 2.938-7.1 5.289-.8 1.091-1.3 2.266-1.9 3.441a13.034 13.034 0 0 0-1.1 4.534v.839l.3 1.763c.2.839.6 1.679 1.1 2.434.8 1.092 1.7 2.015 2.8 2.855 2.22 1.623 4.847 2.805 7.686 3.459 2.84.654 5.818.763 8.714.318a19.025 19.025 0 0 0 6.1-2.014c1.4-.84 2.5-1.679 3.4-2.939.8-1.091 1.3-2.518 1.6-3.693.4-1.176.5-2.351.6-3.442.1-.924 0-1.679-.2-2.686-.205-1.368-.825-2.669-1.8-3.778-1.322-1.387-2.91-2.578-4.7-3.526-.7-.923-1.7-1.343-2.9-1.679l-3.8-1.175c-1.4-.336-3-.588-4.5-.588s-3 .168-4.3.588Zm4.6 7.555 2.4.504.6.42c.9.419 1.9.839 2.8 1.427l1.3 1.091v.084l.2.672v1.846l-.7 2.183-.3.336-.2.168-1.2.503-1.5.336h-2.4l-2.7-.587-1.7-.84-1.2-1.007s0-.168-.2-.252l-.1-.252v-1.175c.2-.84.5-1.595.9-2.351l1.4-2.098.8-.672.5-.252h.2l1-.084h.1Zm-1.5.168-.5.168.5-.168Zm-3 6.968.3.503-.3-.503Zm.4.252c0 .167.3.251.4.419l-.4-.419ZM-44 276.065c0 .42.4.84 1 .84.5 0 1-.336 1-.84 0-.419-.4-.839-1-.839-.265 0-.52.088-.707.246a.777.777 0 0 0-.293.593Zm16-14.774c0 .251.2.503.6.503.3 0 .6-.168.6-.503 0-.252-.2-.504-.6-.504-.3 0-.6.252-.6.504Zm14-7.388c0 .252.2.504.6.504.3 0 .6-.168.6-.504 0-.252-.2-.503-.6-.503-.3 0-.6.251-.6.503Zm-12 26.024c0 .252.2.504.6.504.3 0 .6-.168.6-.504 0-.252-.2-.504-.6-.504-.3 0-.6.252-.6.504Zm-20-27.031c0 .252.2.504.6.504.3 0 .6-.168.6-.504 0-.252-.2-.504-.6-.504-.3 0-.6.252-.6.504Zm4-17.881a.716.716 0 0 0 .052.369c.05.118.13.225.235.313.106.089.233.157.374.198.14.042.29.057.439.044a1.18 1.18 0 0 0 .439-.044c.14-.041.268-.109.374-.198a.829.829 0 0 0 .235-.313.716.716 0 0 0 .052-.369.714.714 0 0 0-.052-.368.832.832 0 0 0-.235-.314 1.04 1.04 0 0 0-.374-.198 1.158 1.158 0 0 0-.439-.043c-.6 0-1.1.419-1.1.923Zm-57.5 25.352c0 1.175 1 2.183 2.6 2.183 1.4 0 2.6-.84 2.6-2.183 0-1.175-1-2.182-2.6-2.182-.682.02-1.329.257-1.811.662s-.764.948-.789 1.52Zm-69.4 38.196c0 .672.6 1.259 1.5 1.259.8 0 1.5-.503 1.5-1.259 0-.671-.6-1.259-1.5-1.259-.8 0-1.5.588-1.5 1.259Zm-8.1 28.122c0 1.176 1 2.267 2.7 2.267 1.4 0 2.6-.839 2.6-2.267 0-1.175-1-2.182-2.6-2.182-.699-.001-1.371.227-1.875.634-.503.407-.799.962-.825 1.548Zm172.6-58.763c0 .252.3.504.7.504.3 0 .6-.252.6-.504 0-.335-.3-.587-.6-.587-.4 0-.7.252-.7.587Zm23.4-1.427c0 .336.3.588.6.588.4 0 .7-.252.7-.588 0-.252-.3-.503-.7-.503-.3 0-.6.251-.6.503Zm66.7 15.447c0 1.427 1.3 2.686 3.3 2.686 1.7 0 3.2-1.091 3.2-2.686 0-1.511-1.3-2.771-3.2-2.771-.875 0-1.715.292-2.334.812-.618.519-.966 1.224-.966 1.959ZM60 247.691c0 .588.5 1.091 1.2 1.091s1.3-.419 1.3-1.091c0-.504-.5-1.007-1.3-1.007-.6 0-1.2.503-1.2 1.007Zm72-97.379c0 1.428 1.3 2.771 3.3 2.771 1.8 0 3.3-1.176 3.3-2.771 0-1.511-1.3-2.77-3.3-2.77-.867.021-1.692.32-2.306.835-.613.515-.969 1.207-.994 1.935Zm-68 5.625c0 .755.7 1.427 1.7 1.427s1.7-.588 1.7-1.427c0-.84-.7-1.427-1.7-1.427s-1.7.671-1.7 1.427Zm73.4-92.93c0 .504.5 1.008 1.2 1.008.6 0 1.2-.42 1.2-1.008 0-.503-.5-1.007-1.2-1.007s-1.2.504-1.2 1.007Z"/></g><defs><clipPath id="a"><path fill="#fff" d="M0 0h228v310H0z"/></clipPath></defs></svg>
